modules/coreui-icons-free/icons/media-pause.svg

<!-- Generated by IcoMoon.io -->
<svg version="1.1" xmlns="http://www.w3.org/2000/svg" width="24" height="24" viewBox="0 0 24 24">
<title>media-pause</title>
<path d="M9.375 2.25h-6c-0.621 0-1.125 0.504-1.125 1.125v0 17.25c0 0.621 0.504 1.125 1.125 1.125v0h6c0.621 0 1.125-0.504 1.125-1.125v0-17.25c0-0.621-0.504-1.125-1.125-1.125v0zM9 20.25h-5.25v-16.5h5.25z"></path>
<path d="M20.625 2.25h-6c-0.621 0-1.125 0.504-1.125 1.125v0 17.25c0 0.621 0.504 1.125 1.125 1.125v0h6c0.621 0 1.125-0.504 1.125-1.125v0-17.25c0-0.621-0.504-1.125-1.125-1.125v0zM20.25 20.25h-5.25v-16.5h5.25z"></path>
</svg>

<svg xmlns="http://www.w3.org/2000/svg" width="24" height="24" viewBox="0 0 24 24"><path d="M9.375 2.25h-6c-.621 0-1.125.504-1.125 1.125v17.25c0 .621.504 1.125 1.125 1.125h6c.621 0 1.125-.504 1.125-1.125V3.375c0-.621-.504-1.125-1.125-1.125zM9 20.25H3.75V3.75H9zM20.625 2.25h-6c-.621 0-1.125.504-1.125 1.125v17.25c0 .621.504 1.125 1.125 1.125h6c.621 0 1.125-.504 1.125-1.125V3.375c0-.621-.504-1.125-1.125-1.125zm-.375 18H15V3.75h5.25z"/></svg>
